packages/assets/static/images/icons/fax.svg

<svg width="24" height="24" viewBox="0 0 24 24" xmlns="http://www.w3.org/2000/svg">
<path d="M19.0277 22.2685H8.90149C8.52452 22.2685 8.21919 21.9632 8.21919 21.5862V14.631C8.21919 14.254 8.52452 13.9487 8.90149 13.9487H19.0277C19.4047 13.9487 19.71 14.254 19.71 14.631V21.5862C19.71 21.9632 19.4047 22.2685 19.0277 22.2685ZM9.5838 20.9039H18.3454V15.3133H9.5838V20.9039Z"/>
<path d="M21.3177 17.8003H19.2384C18.8614 17.8003 18.5561 17.495 18.5561 17.118C18.5561 16.741 18.8614 16.4357 19.2384 16.4357H20.6354V10.295C20.6354 9.91883 20.278 9.61265 19.8397 9.61265H8.03582C7.59744 9.61265 7.24009 9.91883 7.24009 10.295V16.4357H8.49467C8.87164 16.4357 9.17697 16.741 9.17697 17.118C9.17697 17.495 8.87164 17.8003 8.49467 17.8003H6.55778C6.18081 17.8003 5.87548 17.495 5.87548 17.118V10.295C5.87548 9.1666 6.84435 8.24805 8.03582 8.24805H19.8397C21.0311 8.24805 22 9.1666 22 10.295V17.118C22 17.495 21.6947 17.8003 21.3177 17.8003Z"/>
<path d="M17.565 13.0242C18.1303 13.0242 18.5885 12.5659 18.5885 12.0007C18.5885 11.4355 18.1303 10.9773 17.565 10.9773C16.9998 10.9773 16.5416 11.4355 16.5416 12.0007C16.5416 12.5659 16.9998 13.0242 17.565 13.0242Z"/>
<path d="M16.6942 17.5947H11.2358C10.8588 17.5947 10.5535 17.2894 10.5535 16.9124C10.5535 16.5355 10.8588 16.2301 11.2358 16.2301H16.6942C17.0712 16.2301 17.3765 16.5355 17.3765 16.9124C17.3765 17.2894 17.0712 17.5947 16.6942 17.5947Z"/>
<path d="M14.1382 19.9103H11.2358C10.8588 19.9103 10.5535 19.605 10.5535 19.228C10.5535 18.851 10.8588 18.5457 11.2358 18.5457H14.1382C14.5151 18.5457 14.8205 18.851 14.8205 19.228C14.8205 19.605 14.5151 19.9103 14.1382 19.9103Z"/>
<path d="M18.9825 9.30306C18.6055 9.30306 18.3002 8.99773 18.3002 8.62075V6.01095L15.3842 3.09495H9.53006V8.53291C9.53006 8.90988 9.22473 9.21521 8.84776 9.21521C8.47079 9.21521 8.16546 8.90988 8.16546 8.53291V2.88685C8.16546 2.24975 8.68401 1.7312 9.32111 1.7312H15.6665C15.8473 1.7312 16.0213 1.80284 16.1493 1.93077L19.4652 5.24677C19.5932 5.3747 19.6648 5.54868 19.6648 5.72949V8.62161C19.6648 8.99858 19.3595 9.30306 18.9825 9.30306Z"/>
<path d="M18.9825 6.41094H15.6665C15.2896 6.41094 14.9842 6.10561 14.9842 5.72864V2.4135C14.9842 2.03653 15.2896 1.7312 15.6665 1.7312C16.0435 1.7312 16.3488 2.03653 16.3488 2.4135V5.04719H18.9825C19.3595 5.04719 19.6648 5.35252 19.6648 5.72949C19.6648 6.10647 19.3595 6.41094 18.9825 6.41094Z"/>
<path d="M5.83284 18.9977H3.40725C2.63113 18.9977 2 18.3666 2 17.5905V8.42374C2 7.64762 2.63113 7.01649 3.40725 7.01649H5.83284C6.60895 7.01649 7.24009 7.64762 7.24009 8.42374V17.5905C7.24009 18.3666 6.60895 18.9977 5.83284 18.9977ZM3.4081 8.38195C3.38507 8.38195 3.36546 8.40071 3.36546 8.42459V17.5913C3.36546 17.6144 3.38422 17.634 3.4081 17.634H5.83369C5.85672 17.634 5.87633 17.6152 5.87633 17.5913V8.42459C5.87633 8.40156 5.85757 8.38195 5.83369 8.38195H3.4081Z"/>
</svg>

<svg viewBox="0 0 24 24" xmlns="http://www.w3.org/2000/svg" aria-hidden="true" fill="currentColor"><path d="M19.028 22.269H8.9a.68.68 0 0 1-.682-.683v-6.955c0-.377.306-.682.682-.682h10.127c.377 0 .682.305.682.682v6.955a.68.68 0 0 1-.682.683m-9.444-1.365h8.761v-5.59h-8.76z"/><path d="M21.318 17.8h-2.08a.682.682 0 1 1 0-1.364h1.397v-6.141c0-.376-.357-.682-.795-.682H8.036c-.439 0-.796.306-.796.682v6.14h1.255a.682.682 0 1 1 0 1.365H6.558a.68.68 0 0 1-.683-.682v-6.823c0-1.128.97-2.047 2.16-2.047H19.84c1.191 0 2.16.919 2.16 2.047v6.823a.68.68 0 0 1-.682.682"/><path d="M17.565 13.024a1.024 1.024 0 1 0 0-2.047 1.024 1.024 0 0 0 0 2.047m-.87 4.57h-5.46a.682.682 0 1 1 0-1.364h5.46a.682.682 0 1 1 0 1.365m-2.557 2.316h-2.902a.682.682 0 1 1 0-1.364h2.902a.682.682 0 1 1 0 1.364m4.845-10.607a.68.68 0 0 1-.683-.682V6.01l-2.916-2.916H9.53v5.438a.682.682 0 1 1-1.365 0V2.887c0-.637.519-1.156 1.156-1.156h6.345c.181 0 .355.072.483.2l3.316 3.316c.128.128.2.302.2.482v2.893a.68.68 0 0 1-.682.681"/><path d="M18.983 6.41h-3.317a.68.68 0 0 1-.682-.681V2.414a.682.682 0 1 1 1.365 0v2.633h2.634a.682.682 0 1 1 0 1.364M5.833 18.999H3.407A1.41 1.41 0 0 1 2 17.59V8.424a1.41 1.41 0 0 1 1.407-1.408h2.426A1.41 1.41 0 0 1 7.24 8.424v9.167c0 .776-.631 1.407-1.407 1.407M3.408 8.382a.043.043 0 0 0-.043.043v9.166c0 .023.02.043.043.043h2.426a.043.043 0 0 0 .042-.043V8.425a.043.043 0 0 0-.042-.043z"/></svg>
